public/logos/18_eu/7.svg

<svg xmlns="http://www.w3.org/2000/svg" viewBox="0 0 38 38"  fill-rule="nonzero" stroke-linejoin="round" stroke-miterlimit="2" xmlns:v="https://vecta.io/nano"><path d="M36.72 18.72c0-9.875-8.125-18-18-18s-18 8.125-18 18 8.125 18 18 18 18-8.125 18-18" fill="#202020"/><path d="M62.54 19.38c-.645.522-1.171 1.177-1.54 1.92-.328.693-.492 1.453-.48 2.22a4.33 4.33 0 0 0 1.08 3 3.61 3.61 0 0 0 2.69 1.17 3.05 3.05 0 0 0 2.38-1 3.53 3.53 0 0 0 1-2.58c.009-.593-.125-1.179-.39-1.71A4.41 4.41 0 0 0 66 21.06a24.54 24.54 0 0 0-3.46-1.68zm3.12-2.88c.557-.427 1.014-.969 1.34-1.59a4.08 4.08 0 0 0 .45-1.86c.061-.895-.254-1.777-.87-2.43a3.06 3.06 0 0 0-2.34-.87c-.815-.053-1.617.229-2.22.78a2.67 2.67 0 0 0-.82 2 2.82 2.82 0 0 0 .82 2c1.09.863 2.322 1.529 3.64 1.97zm-4.42 2.28a6.11 6.11 0 0 1-2.33-2 5.19 5.19 0 0 1-.72-2.78c-.033-1.592.628-3.123 1.81-4.19a6.74 6.74 0 0 1 4.77-1.65c1.417-.093 2.819.346 3.93 1.23a4.29 4.29 0 0 1 1.3 3.33 4.31 4.31 0 0 1-.59 2.28c-.612.83-1.401 1.514-2.31 2 1.045.35 1.984.959 2.73 1.77a5.29 5.29 0 0 1 1.11 3.51 6.75 6.75 0 0 1-2 4.95 7.11 7.11 0 0 1-5.18 2c-1.617.081-3.203-.48-4.41-1.56a5.12 5.12 0 0 1-1.68-3.93 5.19 5.19 0 0 1 .78-2.91c.74-.91 1.7-1.616 2.79-2.05zM27.11 8.46v1.41c-2 3.45-3.87 7-5.61 10.71A90.72 90.72 0 0 0 18 29c-.587-.072-1.178-.112-1.77-.12a13.22 13.22 0 0 0-1.71.12l-.15-.45c1-1.59 2-3.12 2.82-4.59s2.22-3.75 4-6.84l2.64-4.65-.15-.24H18c-.914-.049-1.83.011-2.73.18a.77.77 0 0 0-.39.42c-.281.946-.443 1.924-.48 2.91l-.12.12-1.2-.09c.06-1.11.12-2.4.12-3.9 0-1-.06-2-.12-3.3l.24-.24c2.85.15 5.79.24 8.79.24l5-.11z" fill="#fff"/></svg>

<?xml version="1.0" encoding="UTF-8" standalone="no"?>
<!DOCTYPE svg PUBLIC "-//W3C//DTD SVG 1.1//EN" "http://www.w3.org/Graphics/SVG/1.1/DTD/svg11.dtd">
<svg width="100%" height="100%" viewBox="0 0 38 38" version="1.1" xmlns="http://www.w3.org/2000/svg" xmlns:xlink="http://www.w3.org/1999/xlink" xml:space="preserve" xmlns:serif="http://www.serif.com/" style="fill-rule:evenodd;clip-rule:evenodd;stroke-linejoin:round;stroke-miterlimit:2;">
    <path d="M36.72,18.72C36.72,8.845 28.595,0.72 18.72,0.72C8.845,0.72 0.72,8.845 0.72,18.72C0.72,28.595 8.845,36.72 18.72,36.72C28.595,36.72 36.72,28.595 36.72,18.72" style="fill:rgb(32,32,32);fill-rule:nonzero;"/>
    <path d="M62.54,19.38C61.895,19.902 61.369,20.557 61,21.3C60.672,21.993 60.508,22.753 60.52,23.52C60.485,24.621 60.872,25.694 61.6,26.52C62.29,27.273 63.269,27.698 64.29,27.69C65.192,27.725 66.064,27.359 66.67,26.69C67.34,26.002 67.702,25.07 67.67,24.11C67.679,23.517 67.545,22.931 67.28,22.4C66.953,21.868 66.517,21.411 66,21.06C64.892,20.41 63.736,19.849 62.54,19.38ZM65.66,16.5C66.217,16.073 66.674,15.531 67,14.91C67.295,14.334 67.45,13.697 67.45,13.05C67.511,12.155 67.196,11.273 66.58,10.62C65.959,10.011 65.108,9.694 64.24,9.75C63.425,9.697 62.623,9.979 62.02,10.53C61.477,11.051 61.179,11.778 61.2,12.53C61.197,13.279 61.492,13.999 62.02,14.53C63.11,15.393 64.342,16.059 65.66,16.5ZM61.24,18.78C60.306,18.323 59.504,17.634 58.91,16.78C58.413,15.94 58.164,14.976 58.19,14C58.157,12.408 58.818,10.877 60,9.81C61.316,8.663 63.027,8.071 64.77,8.16C66.187,8.067 67.589,8.506 68.7,9.39C69.597,10.258 70.072,11.474 70,12.72C70.019,13.52 69.814,14.31 69.41,15C68.798,15.83 68.009,16.514 67.1,17C68.145,17.35 69.084,17.959 69.83,18.77C70.608,19.769 71.002,21.015 70.94,22.28C70.982,24.134 70.258,25.926 68.94,27.23C67.556,28.571 65.686,29.293 63.76,29.23C62.143,29.311 60.557,28.75 59.35,27.67C58.244,26.668 57.63,25.231 57.67,23.74C57.637,22.714 57.908,21.701 58.45,20.83C59.19,19.92 60.15,19.214 61.24,18.78ZM27.11,8.46L27.11,9.87C25.11,13.32 23.24,16.87 21.5,20.58C20.193,23.326 19.025,26.136 18,29C17.413,28.928 16.822,28.888 16.23,28.88C15.658,28.883 15.087,28.923 14.52,29L14.37,28.55C15.37,26.96 16.37,25.43 17.19,23.96C18.01,22.49 19.41,20.21 21.19,17.12L23.83,12.47L23.68,12.23L18,12.23C17.086,12.181 16.17,12.241 15.27,12.41C15.091,12.495 14.951,12.645 14.88,12.83C14.599,13.776 14.437,14.754 14.4,15.74L14.28,15.86L13.08,15.77C13.14,14.66 13.2,13.37 13.2,11.87C13.2,10.87 13.14,9.87 13.08,8.57L13.32,8.33C16.17,8.48 19.11,8.57 22.11,8.57C23.51,8.55 25.19,8.52 27.11,8.46Z" style="fill:white;fill-rule:nonzero;"/>
</svg>
